X:1
T:Loquebar de testimoniis tuis
T:Giovanni Bernardo Zucchinetti (1730 - 1801) edit BMarble
T:Loquebar de testimoniis tuis
T:Copyright © 2015 by CPDL.  This edition can be fully distributed, duplicated, performed, and recorded. 
T:Copyright © 2015 by CPDL.  This edition can be fully distributed, duplicated, performed, and recorded. 
T:Copyright © 2015 by CPDL.  This edition can be fully distributed, duplicated, performed, and recorded. 
T:Copyright © 2015 by CPDL.  This edition can be fully distributed, duplicated, performed, and recorded. 
T:Copyright © 2015 by CPDL.  This edition can be fully distributed, duplicated, performed, and recorded. 
T:Copyright © 2015 by CPDL.  This edition can be fully distributed, duplicated, performed, and recorded. 
T:Copyright © 2015 by CPDL.  This edition can be fully distributed, duplicated, performed, and recorded. 
T:Copyright © 2015 by CPDL.  This edition can be fully distributed, duplicated, performed, and recorded. 
C:Giovanni Bernardo Zucchinetti
C:(1730 - 1801)
C:edit BMarble
Z:Copyright © 2015 by CPDL.  This edition can be fully distributed, duplicated, performed, and recorded.
Z:
%%score [ 1 2 3 4 ]
L:1/8
Q:1/2=92
M:4/4
K:F
V:1 treble nm="SOPRANO" snm="S."
V:2 treble nm="ALTO" snm="A."
V:3 treble-8 transpose=-12 nm="TENOR" snm="T."
V:4 bass nm="BASS" snm="B."
V:1
"^Introit, Matrydom of John the Baptist:Psalm 119:46-7: I spoke of your testimonies before kings, and was not ashamed; I meditated also on your commandments, which I loved exceedingly. Vs:  It is good to give thanks unto the Lord: to sing praise to your name, Most High." z24 || %1
w: |
[M:4/2] c8 A4 d4- | d2 c2 B8 A2 G2 | A4 d6 d2 ^c4 | z4 d8 B2 A2 | G4 c8 B4- | B2 B2 A4 G4 G4 | %7
w: de te- *|* * * sti- *|mo- * ni- is,|te- sti- *|mo- * *|* ni- is tu- is|
 z4 F8 A4 | (B8 A8 | B8) A8 | z4 A8 A4- | A4 A8 c4- | (c4 G4) c8 | z4 =B4 c4 A4 | _B8 B8- | %15
w: in con-|spe- *|* ctu,|con- spe-|* ctu re-|* * gum,|et non con-|fun- de-|
 B4 A2 G2 A8 | A8 A2 G2 A2 B2 | c4 f8 e4 | f4 c4 (d8 | c8) B8 | (A8 G8) | F4 D8 d2 c2 | B8 A4 c4- | %23
w: * * * bar:|et me- * di- *|ta- * *|* bar, me-|* di-|ta- *|bar in man- *|da- tis, man-|
 c4 B8 A4 | B8 A8 | z8 z4 G4 | G4 G4 c8 | F8 z4 A4- | A4 =B4 c8- | c4 A4 G8 |"^rit." c12 ^c4 | %31
w: * da- tis|tu- is,|man-|da- tis tu-|is, quae|_ di- le-|* xi, di-|le- xi|
 d8 d8 |][Q:1/2=92] z32 ||[M:4/2] A8 =B8 | c4 e6 d2 c2 =B2 | A4 A2 =B2 c2 B2 c2 d2 | e4 c8 c4 | %37
w: ni- mis.||et _|psal- la- * re _|no- mi- * ni _ tu- *|o, no- mi-|
 c8 =B4 _B4- | B4 A2 G2 A2 D2 d4- |"^rit." d4 ^c2 =B2 c6 c2 | d16 ||[Q:1/2=92] z24 | z24 || %43
w: ni tu- o|_ Al- * tis- * *|* * * * si-|me.|||
[M:4/2] A8 B8 | A6 =B2 c2 d2 e4- | e2 A2 d8 ^c4 | d4 A2 =B2 =c8 | z4 c8 A4- | A4 c4 B8 | A8 A8 | %50
w: si- cut|e- * * * *|* rat in prin-|ci- pi- * o|et nunc|_ et sem-|* per,|
 A8 =B8 | c4 e6 d2 c2 =B2 | A6 =B2 c2 B2 c2 d2 | e2 c2 c8 c2 c2 | c8 =B4 _B4- | %55
w: et in|sae- * * cu- *|la _ sae- * * *|* cu- lo- rum, in|sae- cu- la|
 B4 A2 G2 A2 D2 d4- |"^rit." d4 ^c2 =B2 c8 | d16 |] %58
w: _ sae- * cu- * lo-|* rum. _ A-|men.|
V:2
 z24 ||[M:4/2] E8 F4 F4 | F3 F F4 z4 F4- | F4 A4 G8- | G4 F2 E2 F4 F2 F2 | G8 F8 | z4 C8 E4 | %7
w: |de te- sti-|mo- ni- is, te-|* sti- mo-|* * * * ni- is|tu- is|in con-|
 F16- | F4 E4 z4 A4- | A4 G8 F4 | E4 A2 G2 F8- | F8 E4 A4 | G12 ^F4 | G4 G8 =F4- | F4 E2 D2 E8 | %15
w: spe-|* ctu, con-|* spe- ctu|re- * * *|* gum, et|non con-|fun- de- *||
 F8 F8 | F2 E2 F2 G2 A8- | A2 G2 F2 A2 B8 | A8 F8- | F12 E4 | F4 D4 E8 | A,4 A8 D4 | D4 E4 F8 | %23
w: bar: et|me- * di- * ta-||bar, me-|* di-|ta- * *|bar, me- di-|ta- * bar|
 z4 D4 F8- | F4 E4 F8 | A8 B8- | B4 B4 A4 F4- | F4 F4 (A6 G2 | F4) F4 (E4 G4-) | G4 F4 E8- | %30
w: in man-|* * da-|* tis,|_ tu- is, quae|_ di- le- *|* xi ni- *|* mis, ni-|
 E2 D2 E2 F2 G8- | G4 ^F2 E2 F8 |] z32 ||[M:4/2] F8 D4 G4 | E4 A8 E4 | E6 E2 A8 | z4 A4 G8- | %37
w: |* * * mis.||et _ psal-|la- * re|no- mi- ni,|no- *|
 G4 ^F4 G4 D2 E2 | =F4 F8 A2 A2 | G4 E6 ^F2 G4- | G4 ^F2 E2 F8 || z24 | z24 ||[M:4/2] F8 D4 G4 | %44
w: * mi- ni, no- *|mi- ni tu- o|Al- tis- * *|* si- * me.|||si- * cut|
 E2 D2 C2 =B,2 A,6 A2 | F4 F4 E8 | F8 E4 A4 | G8 z4 E4- | E4 ^F4 G2 A2 B2 G2 | E8 E8 | F8 D4 G4 | %51
w: e- * * * * rat|in prin- ci-|pi- o et|nunc, nunc|_ et sem- * * *|* per,|et _ in|
 E4 A8 E4 | E4 E4 A6 A2 | A4 A2 A2 G8- | G4 ^F4 G4 D2 E2 | F12 A4 | G4 E6 ^F2 G4- | G4 ^F2 E2 F8 |] %58
w: sae- * cu-|la, in sae- cu-|la sae- cu- lo-|* rum, sae- cu- *|la sae-|cu- lo- rum. A-|* * * men.|
V:3
 D2 F2 D2 C2 F2 G2 F2 E2 D8 ||[M:4/2] G4 c8 B2 A2 | B4 d4 c8- | c4 A4 e6 e2 | A8 z4 d4- | %5
w: Lo- * que- * * * * * bar|de te- sti- *|mo- * *|* * * ni-|is, te-|
 d4 c2 B2 A4 d4 | c4 f2 f2 e4 e4 | z4 A8 c4 | B4 G4 c4 f4- | f4 e2 d2 ^c4 d4 | ^c4 e8 d2 =c2 | %11
w: * sti- * mo- *|* ni- is tu- is|in con-|spe- ctu re- *||gum, re- * *|
 d4 A2 =B2 c4 f4- | f4 e8 d2 c2 | =B4 d4 c4 d2 c2 | _B8 G8 | c16 | z8 c8 | c2 B2 A2 c2 B4 G4 | %18
w: * * * gum, et|_ non _ _|_ con- fun- * *|* de-|bar:|et|me- * di- * ta- *|
 c4 c8 B4 | A4 A4 z4 G4 | c4 d8 ^c4 | d4 f2 e2 d2 c2 B2 A2 | B4 G4 c4 A4 | d8 c8 | B8 z4 c4- | %25
w: bar, me- di-|ta- bar in|man- da- tis|tu- * * * * * *|* is, in man-|da- *|tis, man-|
 c2 F2 f8 e2 d2 | e8 f4 z4 | z4 A8 A4 | d8 G8 | A2 G2 A2 =B2 c4 G4- | G4 G8 E4 | A8 A8 |] %32
w: * * * da- tis|tu- is,|quae di-|le- xi,|quae _ _ _ _ di-|* le- xi|ni- mis.|
 F2 (G2 A2) A2 A2 A2 (A2 c2) A2 (A2 G2) A2 A8 ||[M:4/2] c4 d8 e4- | e2 d2 c2 =B2 A4 A2 B2 | %35
w: Bo- num _ est con- fi- te- * ri Do- * mi- no,|et _ psal-|* * la- * re no- *|
 c2 =B2 c2 d2 e4 c4- | c2 c2 f8 e4 | z4 A4 d4 G4 | c4 A8 F4 | G12 E4 | A16 || %41
w: * * * * * mi-|* ni tu- o,|no- mi- ni|tu- o Al-|tis- si-|me.|
 F2 (G2 A2) A2 A2 A2 A2 A2 A2 A6 | A2 A2 (A2 c2) A2 A2 (A2 G2) (G4 A4) ||[M:4/2] z4 f8 e2 d2 | %44
w: Glo- ri- * a Pa- tri et Fi- li- o|et Spi- ri- * tu- i San- * cto: _|si- cut _|
 c2 d2 e8 c4 | z4 A8 A4 | A6 A2 A4 c2 d2 | e8 z4 c4- | c4 A4 z4 d4- | d4 ^c2 =B2 c8 | =c4 d8 e4 | %51
w: e- * * rat|in prin-|ci- pi- o et _|nunc, et|_ nunc et|_ sem- * per,|et _ in|
 e2 d2 c2 =B2 A6 B2 | c2 =B2 c2 d2 e4 c4- | c2 c2 f8 e4 | z4 A4 d6 G2 | c4 A8 F4 | G12 E4 | %57
w: sae- * * * * *|* * cu- * la sae-|* cu- lo- rum,|in sae- cu-|la sae- cu-|lo- rum.|
 A8 A8 |] %58
w: A- men.|
V:4
 z24 ||[M:4/2] (C,8 D,8) | D,8 F,8 | (F,8 E,8 | D,12) D,4 | E,8 F,8 | F,8 C,8 | D,8 (F,8 | %8
w: |de _|te- sti-|mo- *|* ni-|is, tu-|is in|con- spe-|
 G,8 F,8 | G,8) A,8 | A,8 A,8 | A,8 (A,8 | C8) A,8 | (G,8 A,8) | G,16 | F,16 | (D,8 F,8) | %17
w: |* ctu|re- gum,|et non|_ con-|fun- *|de-|bar:|et _|
 (F,8 G,8 | F,8) F,8 | (F,8 G,8 | F,8) E,8 | D,8 F,8 | G,8 F,8 | F,8 F,8 | (G,8 F,8-) | F,8 G,8 | %26
w: me- *|* di-|ta- *|* bar,|me- di-|ta- bar|in man-|da- *|* tis|
 G,8 F,8 | D,8 F,8 | (D,8 C,8 | F,8) C,8 | E,16 | D,16 |] z32 ||[M:4/2] F,8 G,8 | A,6 A,2 A,8 | %35
w: tu- is,|quae di-|le- *|* xi|ni-|mis.||et _|psal- la- re|
 A,8 A,4 A,4 | A,8 C8 | A,8 G,8 | F,8 F,8 | E,12 E,4 | D,16 || z24 | z24 ||[M:4/2] F,8 G,8 | %44
w: no- mi- ni|tu- o,|_ _|* Al-|tis- si-|me.|||si- cut|
 A,8 A,8 | A,4 A,4 A,6 A,2 | A,8 A,8 | C8 A,8 | (A,8 G,8) | A,16 | F,8 G,8 | A,8 A,8 | A,8 A,8 | %53
w: e- rat|in prin- ci- pi-|o et|nunc, et|sem- *|per,|et in|sae- cu-|la sae-|
 (A,8 C8 | A,8) G,8 | F,8 (F,8 | E,16) | D,16 |] %58
w: cu- *|* lo-|rum. A-||men.|

